X: 455
T: Tyrone Castle
N:"Slow" "collected by J.O'Neill"
N:Irish title: caislean tir-eo.gain
B:O'Neill's 455
Z:Transcribed by henrik.norbeck@mailbox.swipnet.se
M:3/4
L:1/8
K:C
(G>A) | c3 (d ed) | c3 (A GF) | E2 (G2 Ac) | c4 G>A |
c3 (d ed) | c2 B2 A>G | (G2 E2) (D>C) | C4 ||
(C>D) | (E2 G2) A>B | A>G (E2 C>D) | (E2 G2) (A_B) | A3 z (G>A) |
c3 (d ed) | (c2 B2) A2 | (G E3) (D>C) | C4 ||


